src/assets/img/globalping/copy-icon-black.svg

<svg width="20" height="20" viewBox="0 0 20 20" fill="none" xmlns="http://www.w3.org/2000/svg">
<g clip-path="url(#clip0_5546_4497)">
<path d="M16.6667 7.5H9.16667C8.24619 7.5 7.5 8.24619 7.5 9.16667V16.6667C7.5 17.5871 8.24619 18.3333 9.16667 18.3333H16.6667C17.5871 18.3333 18.3333 17.5871 18.3333 16.6667V9.16667C18.3333 8.24619 17.5871 7.5 16.6667 7.5Z" stroke="#17233A" stroke-width="2" stroke-linecap="round" stroke-linejoin="round"/>
<path d="M4.16675 12.5H3.33341C2.89139 12.5 2.46746 12.3244 2.1549 12.0118C1.84234 11.6992 1.66675 11.2753 1.66675 10.8333V3.33329C1.66675 2.89127 1.84234 2.46734 2.1549 2.15478C2.46746 1.84222 2.89139 1.66663 3.33341 1.66663H10.8334C11.2754 1.66663 11.6994 1.84222 12.0119 2.15478C12.3245 2.46734 12.5001 2.89127 12.5001 3.33329V4.16663" stroke="#17233A" stroke-width="2" stroke-linecap="round" stroke-linejoin="round"/>
</g>
<defs>
<clipPath id="clip0_5546_4497">
<rect width="20" height="20" fill="white"/>
</clipPath>
</defs>
</svg>

<svg xmlns="http://www.w3.org/2000/svg" width="20" height="20" fill="none">
  <g stroke="#17233A" stroke-linecap="round" stroke-linejoin="round" stroke-width="2" clip-path="url(#a)">
    <path d="M16.667 7.5h-7.5c-.92 0-1.667.746-1.667 1.667v7.5c0 .92.746 1.666 1.667 1.666h7.5c.92 0 1.666-.746 1.666-1.666v-7.5c0-.92-.746-1.667-1.666-1.667Z"/>
    <path d="M4.167 12.5h-.834a1.667 1.667 0 0 1-1.666-1.667v-7.5a1.667 1.667 0 0 1 1.666-1.666h7.5A1.667 1.667 0 0 1 12.5 3.333v.834"/>
  </g>
  <defs>
    <clipPath id="a">
      <path fill="#fff" d="M0 0h20v20H0z"/>
    </clipPath>
  </defs>
</svg>
